cssgg/user-list.svg

<svg
  width="24"
  height="24"
  viewBox="0 0 24 24"
  fill="none"
  xmlns="http://www.w3.org/2000/svg"
>
  <path
    fill-rule="evenodd"
    clip-rule="evenodd"
    d="M8 11C10.2091 11 12 9.20914 12 7C12 4.79086 10.2091 3 8 3C5.79086 3 4 4.79086 4 7C4 9.20914 5.79086 11 8 11ZM8 9C9.10457 9 10 8.10457 10 7C10 5.89543 9.10457 5 8 5C6.89543 5 6 5.89543 6 7C6 8.10457 6.89543 9 8 9Z"
    fill="currentColor"
  />
  <path
    d="M11 14C11.5523 14 12 14.4477 12 15V21H14V15C14 13.3431 12.6569 12 11 12H5C3.34315 12 2 13.3431 2 15V21H4V15C4 14.4477 4.44772 14 5 14H11Z"
    fill="currentColor"
  />
  <path d="M22 11H16V13H22V11Z" fill="currentColor" />
  <path d="M16 15H22V17H16V15Z" fill="currentColor" />
  <path d="M22 7H16V9H22V7Z" fill="currentColor" />
</svg>

<svg viewBox="0 0 24 24" xmlns="http://www.w3.org/2000/svg"><path fill-rule="evenodd" d="M8 11c2.2 0 4-1.8 4-4 0-2.21-1.8-4-4-4C5.79 3 4 4.79 4 7c0 2.2 1.79 4 4 4Zm0-2c1.1 0 2-.9 2-2 0-1.11-.9-2-2-2 -1.11 0-2 .89-2 2 0 1.1.89 2 2 2Z"/><g><path d="M11 14c.55 0 1 .44 1 1v6h2v-6c0-1.66-1.35-3-3-3H5c-1.66 0-3 1.34-3 3v6h2v-6c0-.56.44-1 1-1h6Z"/><path d="M22 11h-6v2h6v-2Z"/><path d="M16 15h6v2h-6v-2Z"/><path d="M22 7h-6v2h6V7Z"/></g></svg>
